src/icons/outline/users/logout.svg

<svg width="24" height="24" viewBox="0 0 24 24" fill="none" xmlns="http://www.w3.org/2000/svg">
<g clip-path="url(#clip0_92_760)">
<path d="M14.1847 2C15.344 2.05003 16.2239 2.99051 16.1739 4.08105V8.02344C16.1737 8.42344 15.8435 8.74316 15.4239 8.74316C15.0046 8.74289 14.6751 8.42327 14.6749 8.02344V4.04102C14.6949 3.71086 14.4545 3.45043 14.1446 3.44043H3.00107C2.72135 3.45049 2.48126 3.71075 2.50107 4.01074V19.9492C2.48123 20.2792 2.72164 20.5388 3.03135 20.5488H14.1651C14.4349 20.5388 14.6751 20.2786 14.6651 19.9785V15.9668C14.6652 15.5684 15.0019 15.2498 15.4093 15.2471C15.8266 15.2495 16.1543 15.5682 16.1544 15.9668V19.9492C16.2042 21.0096 15.3344 21.9399 14.2052 22H2.99131C1.82199 21.9399 0.952079 21.0095 1.00205 19.9189V4.04102C0.952085 2.98052 1.83192 2.04007 2.95127 2H14.1847Z" fill="#1D1B20"/>
<path d="M18.3028 8.18359C18.5927 7.90347 19.0618 7.9035 19.3517 8.18359L22.7696 11.4951C22.8395 11.565 22.8898 11.6447 22.9298 11.7246H22.9395C22.9795 11.8146 23.0001 11.9049 23.0001 12.0049C23.0001 12.1049 22.9795 12.1951 22.9395 12.2852C22.9095 12.3651 22.8503 12.4456 22.7804 12.5156L19.3624 15.8271C19.2125 15.9672 19.022 16.0371 18.8321 16.0371C18.6424 16.0371 18.4527 15.967 18.3028 15.8271C18.0131 15.547 18.0131 15.0868 18.3028 14.8066L20.4415 12.7256H7.89853C7.47881 12.7255 7.14853 12.4051 7.14853 12.0049C7.14862 11.6048 7.48885 11.2852 7.89853 11.2852H20.4415L18.3028 9.2041C18.0131 8.924 18.0131 8.46373 18.3028 8.18359Z" fill="#1D1B20"/>
</g>
<defs>
<clipPath id="clip0_92_760">
<rect width="24" height="24" fill="white"/>
</clipPath>
</defs>
</svg>

<svg xmlns="http://www.w3.org/2000/svg" width="24" height="24" fill="none" viewBox="0 0 24 24"><g fill="currentColor" clip-path="url(#a)"><path d="M14.185 2c1.159.05 2.039.99 1.989 2.081v3.942c0 .4-.33.72-.75.72s-.749-.32-.75-.72V4.041a.55.55 0 0 0-.53-.6H3.002c-.28.01-.52.27-.5.57v15.938c-.02.33.22.59.53.6h11.134c.27-.01.51-.27.5-.57v-4.012c0-.399.337-.717.744-.72.418.002.745.321.745.72v3.982c.05 1.06-.82 1.99-1.949 2.051H2.991c-1.169-.06-2.039-.99-1.989-2.081V4.04c-.05-1.06.83-2 1.95-2.041z"/><path d="M18.303 8.184a.76.76 0 0 1 1.049 0l3.418 3.311c.07.07.12.15.16.23h.01a.67.67 0 0 1 0 .56c-.03.08-.09.16-.16.23l-3.418 3.312a.775.775 0 0 1-1.06 0 .71.71 0 0 1 0-1.02l2.14-2.081H7.899c-.42 0-.75-.32-.75-.721s.34-.72.75-.72h12.543l-2.14-2.08a.71.71 0 0 1 0-1.021"/></g><defs><clipPath id="a"><path fill="currentColor" d="M0 0h24v24H0z"/></clipPath></defs></svg>
